X: 1
T: Michael Russell's
R: slide
M: 12/8
L: 1/8
K: Dmaj
A3 A2F ABA F2E|DFA B2A B2A F3|
dcd a2g f2d B2A|1 BcA BAB d2d dcB :|2 BcA BAB d3 dz2||
dcd a2g f2d B2A |BcA BcA B2A F3 |
dcd a2g f2d B2A |BcA BAB d3 dz2:||


Tune 958	Setting 25380

